packages/tokens/icons/report3/size16Px.svg

<svg viewBox="0 0 16 16" fill="none" xmlns="http://www.w3.org/2000/svg" width="1em" height="1em"><path d="M12 14.5L4 14.5C3.17157 14.5 2.5 13.8284 2.5 13L2.5 3C2.5 2.17157 3.17157 1.5 4 1.5L8.67975 1.5C9.07394 1.5 9.45229 1.65517 9.73297 1.93195L13.0532 5.20608C13.3391 5.48796 13.5 5.87267 13.5 6.27413L13.5 13C13.5 13.8284 12.8284 14.5 12 14.5Z" stroke="currentColor"/><path d="M9.5 1.5V5.5C9.5 6.05228 9.94772 6.5 10.5 6.5L13.5 6.5" stroke="currentColor"/><path d="M4.5 12.5L7 9L9 11L11.5 8" stroke="currentColor" stroke-linecap="round" stroke-linejoin="round"/><path d="M4.5 6.30957L4.5 12.5H11.5" stroke="currentColor" stroke-linecap="round" stroke-linejoin="round"/></svg>

<svg xmlns="http://www.w3.org/2000/svg" fill="none" viewBox="0 0 16 16" width="1em" height="1em"><path stroke="currentColor" d="M12 14.5H4A1.5 1.5 0 0 1 2.5 13V3A1.5 1.5 0 0 1 4 1.5h4.68a1.5 1.5 0 0 1 1.053.432l3.32 3.274a1.5 1.5 0 0 1 .447 1.068V13a1.5 1.5 0 0 1-1.5 1.5Z"/><path stroke="currentColor" d="M9.5 1.5v4a1 1 0 0 0 1 1h3"/><path stroke="currentColor" stroke-linecap="round" stroke-linejoin="round" d="M4.5 12.5 7 9l2 2 2.5-3"/><path stroke="currentColor" stroke-linecap="round" stroke-linejoin="round" d="M4.5 6.31v6.19h7"/></svg>
